X: 21788
T: King's Fancy, The
R: jig
M: 6/8
K: Dmajor
|:A|f2 d dcd|Bdg Adf|GBe FAd|c^Bc =bag|
f2 d dcd|Bdg A2 f|GBe F2 d|c^Bc d2:|
K: Bmin
|:c|fdB B^AB|fdB B2 d|c^AF FGF|fgf edc|
fdB B^AB|fdB BB/c/d|c2 F gfe|dB^A B2:|

